!!!COM: Palestrina, Giovanni Perluigi da
!!!OPR: Ave Maria (1594)
!!!OTL: Sanctus
**kern	**kern	**kern	**kern
*Ibass	*Itenor	*Icalto	*Icant
!Bassus	!Tenor	!Altus	!Cantus
*clefF4	*clefGv2	*clefG2	*clefG2
*k[]	*k[]	*k[]	*k[]
*A:aeo	*A:aeo	*A:aeo	*A:aeo
*M4/2	*M4/2	*M4/2	*M4/2
=1	=1	=1	=1
0r	1c	0r	0r
.	1G	.	.
=2	=2	=2	=2
0r	4A	0r	1cc
.	4B	.	.
.	4c	.	.
.	4d	.	.
.	1e	.	1g
=3	=3	=3	=3
0r	2r	1f	4a
.	.	.	4b
.	2a	.	4cc
.	.	.	4dd
.	2g	1c	1ee
.	4a	.	.
.	4g	.	.
=4	=4	=4	=4
0r	4f	4d	1ff
.	4e	4e	.
.	2d	4f	.
.	.	4g	.
.	2c	1a	2ee
.	2d	.	4ff
.	.	.	4ee
=5	=5	=5	=5
1r	1G	1b-	4dd
.	.	.	4cc
.	.	.	2dd
1F	2.A	2a	2cc
.	.	2a	2ff
.	4B	.	.
=6	=6	=6	=6
1C	1c	2g	4ee
.	.	.	4dd
.	.	4a	4cc
.	.	4g	4b
4D	2r	4f	1a
4E	.	4e	.
4F	2f	2d	.
4G	.	.	.
=7	=7	=7	=7
1A	2e	1c	2r
.	4f	.	1a
.	4e	.	.
1B-	4d	2f	.
.	4c	.	.
.	[2d	2d	2g
=8	=8	=8	=8
1A	4d]	2.e	2a
.	4c	.	.
.	2c	.	2ee
.	.	4f	.
1r	2B-	2g	2dd
.	2A	[2a	2cc
=9	=9	=9	=9
1r	1B-	2a]	1dd
.	.	2g	.
2r	2A	1cc	1ee
2A	[2e	.	.
=10	=10	=10	=10
2G	4e]	2b-	2r
.	4d	.	.
2F	2f	2a	1cc
1G	2e	2.g	.
.	[2d	.	2b-
.	.	4f	.
=11	=11	=11	=11
1A	4d]	1e	2.a
.	4c	.	.
.	2c	.	.
.	.	.	4b
4F	1A	2r	4cc
4G	.	.	4b
4A	.	2a	4cc
4B	.	.	4dd
=12	=12	=12	=12
2c	0r	2g	2ee
2d	.	2f	2a
1B-	.	1g	[1dd
=13	=13	=13	=13
1A	2r	2.a	2dd]
.	2e	.	2cc
.	.	4g	.
1r	2d	4a	2ff
.	.	4b	.
.	2c	2cc	2ee
=14	=14	=14	=14
0r	1d	2b	2.dd
.	.	1a	.
.	.	.	4cc
.	1e	.	1b
.	.	2g#	.
=15	=15	=15	=15
1.A	2r	2a	1a
.	1c	1e	.
.	.	.	1r
2G	2B	2e	.
=16	=16	=16	=16
2F	2A	2d	0r
1G	1B	2d	.
.	.	2e	.
2D	4A	[2f	.
.	4G	.	.
=17	=17	=17	=17
1F	1A	4f]	0r
.	.	4e	.
.	.	1d	.
1E	2G	.	.
.	[2g	2c	.
=18	=18	=18	=18
1D	2g]	2B	2r
.	2f	2A	1dd
1r	2g	2G	.
.	[2e	[2g	2cc
=19	=19	=19	=19
0r	2e]	2g]	1b
.	2d	2f	.
.	2c	2e	1a
.	[2d	[2f	.
=20	=20	=20	=20
0r	2d]	2f]	2b
.	2A	2e	2.cc
.	1c	1e	.
.	.	.	4b
.	.	.	[2a
=21	=21	=21	=21
2r	1B	1d	2a]
1d	.	.	2g#
.	1A	1e	[1a
2c#	.	.	.
=22	=22	=22	=22
2.d	1.f	2r	1a]
.	.	1a	.
4c	.	.	.
4A	.	.	1r
4B	.	.	.
2c	2e	2g	.
=23	=23	=23	=23
2d	2d	2f	2r
2c	4e	1g	1ee
.	4d	.	.
2c	4e	.	.
.	4f	.	.
2B-	2g	2d	2dd
=24	=24	=24	=24
2A	0a	1f	2cc
2.D	.	.	1dd
.	.	1f	.
4E	.	.	.
4F	.	.	2a
4G	.	.	.
=25	=25	=25	=25
1A	2r	1e	1cc
.	1e	.	.
2E	.	1g	1b
2G	2d	.	.
=26	=26	=26	=26
2A	2c	2e	2.a
2D	1d	2f	.
.	.	.	4g
2.F	.	1f	4a
.	.	.	4b
.	2A	.	[2cc
4G	.	.	.
=27	=27	=27	=27
1A	1c	1e	4cc]
.	.	.	4b
.	.	.	1a
1E	1B	2.e	.
.	.	.	2g#
.	.	4e	.
=28	=28	=28	=28
0A	0A	0e	0a
*	*	*	*-
!! Pleni
*Itenor	*Icalto	*Icant
!Tenor	!Altus	!Cantus
*clefGv2	*clefG2	*clefG2
*k[]	*k[]	*k[]
*A:aeo	*A:aeo	*A:aeo
*M4/2	*M4/2	*M4/2
=29	=29	=29
0r	1f	0r
.	1c	.
=30	=30	=30
0r	4d	1r
.	4e	.
.	4f	.
.	4g	.
.	1a	1cc
=31	=31	=31
0r	1b-	1g
.	2a	4a
.	.	4b
.	2f	4cc
.	.	4dd
=32	=32	=32
0r	2g	1ee
.	2a	.
.	4d	1ff
.	4e	.
.	4f	.
.	4g	.
=33	=33	=33
0r	1a	2ee
.	.	2cc
.	2b	2dd
.	[2cc	2ee
=34	=34	=34
1r	4cc]	4a
.	4b	4b
.	2a	4cc
.	.	4dd
1c	2g	1ee
.	[2cc	.
=35	=35	=35
1G	2cc]	1dd
.	2b	.
4A	1a	2cc
4B	.	.
4c	.	2cc
4d	.	.
=36	=36	=36
1e	2g	2b
.	2.cc	2g
1f	.	4a
.	4b	4b
.	2a	4cc
.	.	4a
=37	=37	=37
2e	2g	2b
2c	2.a	2cc
2d	.	1b
.	8g#	.
.	8f#	.
2e	2g#	.
=38	=38	=38
4A	2.a	1a
4B	.	.
4c	.	.
4d	4f	.
2e	2g	1r
[2f	2a	.
=39	=39	=39
4f]	4d	1r
4e	4e	.
1d	4f	.
.	4d	.
.	1e	2r
4c#	.	[2ee
4B	.	.
=40	=40	=40
2c#	1r	2ee]
2d	.	2dd
1A	[1a	2cc
.	.	4a
.	.	4b
=41	=41	=41
0r	2a]	4cc
.	.	4dd
.	2g	4ee
.	.	8dd
.	.	8cc
.	2f	4dd
.	.	4ee
.	4d	[2ff
.	4e	.
=42	=42	=42
0r	4f	4ff]
.	4g	4ee
.	4a	4cc
.	8g	4dd
.	8f	.
.	4g	2ee
.	4a	.
.	[2b-	2dd
=43	=43	=43
0r	4b-]	1.ff
.	4a	.
.	4f	.
.	4g	.
.	4a	.
.	4b	.
.	2cc	2ee
=44	=44	=44
1r	2b	2dd
.	1a	2cc
[1e	.	[1b
.	4g	.
.	4f	.
=45	=45	=45
2e]	2g	1b]
2d	2f	.
2c	2e	1a
4A	[2a	.
4B	.	.
=46	=46	=46
4c	2a]	0r
4d	.	.
4e	2g	.
8d	.	.
8c	.	.
4d	2f	.
4e	.	.
[2f	4d	.
.	4e	.
=47	=47	=47
4f]	4f	2r
4e	4g	.
4c	4a	1ee
4d	8g	.
.	8f	.
4e	4g	.
4f	4a	.
4g	2b-	2dd
4d	.	.
=48	=48	=48
1.f	2a	2cc
.	4f	4a
.	4g	4b
.	4a	4cc
.	4b	4dd
2c	[2cc	4ee
.	.	4cc
=49	=49	=49
1g	2cc]	1dd
.	2b	.
2r	2cc	2ee
[2e	4b	[2gg
.	4a	.
=50	=50	=50
2e]	2g	2gg]
2d	2a	2ff
2c	2r	2.ee
4A	[2a	.
4B	.	4dd
=51	=51	=51
4c	2a]	2cc
4d	.	.
4e	2g	2b
8d	.	.
8c	.	.
4d	2f	2.a
4e	.	.
[2f	4d	.
.	4e	4g
=52	=52	=52
4f]	4f	4a
8e	4g	4b
8d	.	.
1c	4a	4cc
.	8g	4dd
.	8f	.
.	2g	2ee
2d	2f	[2dd
=53	=53	=53
1A	1e	2dd]
.	.	2cc#
1d	1d	1dd
*-	*-	*-
!! Hosanna
**kern	**kern	**kern	**kern
*Ibass	*Itenor	*Icalto	*Icant
!Bassus	!Tenor	!Altus	!Cantus
*clefF4	*clefGv2	*clefG2	*clefG2
*k[]	*k[]	*k[]	*k[]
*A:aeo	*A:aeo	*A:aeo	*A:aeo
*M4/2	*M4/2	*M4/2	*M4/2
=54	=54	=54	=54
1G	1B	0g	1dd
2G	2B	.	2dd
2G	2B	.	2dd
=55	=55	=55	=55
4C	2c	1g	2ee
4D	.	.	.
4E	4G	.	2ee
4F	4A	.	.
4G	4B	1g	1dd
4A	4c	.	.
2B-	2d	.	.
=56	=56	=56	=56
2A	2e	2a	1cc
2F	2f	2a	.
2G	1d	1g	2r
2G	.	.	2b
=57	=57	=57	=57
2A	1r	1f	2cc
2B	.	.	2dd
2.c	1e	2r	2.ee
.	.	2g	.
4B	.	.	4dd
=58	=58	=58	=58
2A	2f	2a	2cc
2G	2g	2b	2b
[1F	2.a	2.cc	4a
.	.	.	4g
.	.	.	4f
.	4g	4b	4g
=59	=59	=59	=59
2F]	2f	2a	4a
.	.	.	4b
2C	2e	2g	2cc
2r	2d	2f	2b
2C	2c	2e	[2a
=60	=60	=60	=60
2D	1B	2f	2a]
2E	.	4e	2g#
.	.	4d	.
2.F	2A	2c	[1a
.	2c	[2f	.
4E	.	.	.
=61	=61	=61	=61
2D	2d	2f]	0a]
2C#	2e	2e	.
4D	[1f	1d	.
4E	.	.	.
4F	.	.	.
4G	.	.	.
=62	=62	=62	=62
4A	2f]	1c	2r
4B	.	.	.
1c	2e	.	2g
.	1d	1r	2a
2B	.	.	2b
=63	=63	=63	=63
2.A	2c	2r	2.cc
.	2e	2c	.
4G	.	.	4b
2F	2f	2d	2a
2E	2g	2e	2g
=64	=64	=64	=64
1D	2.a	2.f	4f
.	.	.	4g
.	.	.	4a
.	4g	4g	4b
1r	2f	2a	1cc
.	2e	2A	.
=65	=65	=65	=65
1r	2d	2B	2b
.	2c	2c	1a
2r	1B	2d	.
2E	.	2e	2g
=66	=66	=66	=66
2F	1r	1d	2a
2G	.	.	4g
.	.	.	4f
2.A	2r	2c	1e
.	2c	2e	.
4G	.	.	.
=67	=67	=67	=67
2F	2d	2f	2r
2E	2e	2g	2cc
2D	2f	2a	2dd
2C	2g	2cc	2ee
=68	=68	=68	=68
1F	2.a	2cc	2.ff
.	.	2c	.
.	4g	.	4ee
1r	2f	2r	2dd
.	2e	2c	2cc
=69	=69	=69	=69
2r	2d	2d	2b
2C	2c	2e	1a
2D	1B	2f	.
2E	.	4e	2g#
.	.	4d	.
=70	=70	=70	=70
2.F	2A	2c	[0a
.	2c	1f	.
4E	.	.	.
2D	2d	.	.
2C#	2e	2e	.
=71	=71	=71	=71
0D	2.f	2.d	1a_
.	4e	4e	.
.	1d	1f	1a_
=72	=72	=72	=72
0A	0c#	0e	0a]
==	==	==	==
*-	*-	*-	*-
!!!CDT: 1525/^1526/-1594/2/2
!!!OCY: Italia
!!!AGN: Mass (Paraphrase)
!!!AST: renaissance, vocal
!!!ASW: Prayer
!!!PWK: Masses, Book 7
!!!RNB: Cadence finals: D
!!!YOR: Le Opere Complete, v. 23, p. 1
!!!YOO: Rome, Italy: Fratelli Scalera
!!!END: 1992//
!!!EED: John Miller
!!!YEC: Copyright 2000, John Miller
!!!YEN: United States of America
!!!YEM: Rights to all derivative electronic formats reserved.
!!!YEM: Refer to licensing agreement for further details.
!!!YEM: This file must be accompanied by the licensing agreement.
!!!YEM: A copy of the licensing agreement may be found at http://www.music-cog.ohio-state.edu/HumdrumDatabases/Palestrina/license.txt
!!!EMD: converted to Humdrum by Bret Aarden
